;FLAVOR:Marlin
;TIME:1088
;Filament used: 0.908014m
;Layer height: 0.21875
;MINX:46.111
;MINY:32.175
;MINZ:0.263
;MAXX:73.9
;MAXY:87.825
;MAXZ:9.023
;TARGET_MACHINE.NAME:Monoprice Select Mini V2
;Generated with Cura_SteamEngine 5.5.0
M140 S65
M105
M190 S65
M104 S215
M105
M109 S215
M82 ;absolute extrusion mode
G21;(metric values)
G90;(absolute positioning)
M82;(set extruder to absolute mode)
M107;(start with the fan off)
G28;(Home the printer)
G92 E0;(Reset the extruder to 0)
G0 Z5 E5 F500;(Move up and prime the nozzle)
G0 X-1 Z0;(Move outside the printable area)
G1 Y60 E8 F500;(Draw a priming/wiping line to the rear)
G1 X-1;(Move a little closer to the print area)
G1 Y10 E16 F500;(draw more priming/wiping)
G1 E15 F250;(Small retract)
G92 E0;(Zero the extruder)
G92 E0
G92 E0
G1 F2400 E-2.5
;LAYER_COUNT:41
;LAYER:0
M107
G0 F4320 X49.405 Y33.816 Z0.263
;TYPE:SKIRT
G1 F2400 E0
G1 F1800 X51.038 Y32.699 E0.08329
G1 X51.633 Y32.437 E0.11066
G1 X52.929 Y32.209 E0.16605
G1 X68.819 Y32.175 E0.83497
G1 X70.398 Y32.39 E0.90206
G1 X72.049 Y33.257 E0.98056
G1 X73.148 Y34.576 E1.05283
G1 X73.754 Y35.955 E1.11624
G1 X73.891 Y37.109 E1.16517
G1 X73.9 Y53.271 E1.84554
G1 X73.589 Y54.52 E1.89972
G1 X72.809 Y55.982 E1.96948
G1 X71.497 Y57.074 E2.04134
G1 X70.12 Y57.679 E2.10465
G1 X68.966 Y57.816 E2.15357
G1 X52.808 Y57.825 E2.83378
G1 X51.192 Y57.401 E2.90411
G1 X49.398 Y56.168 E2.99575
G1 X47.729 Y53.716 E3.12061
G1 X46.708 Y50.585 E3.25925
G1 X46.292 Y48.208 E3.36083
G1 X46.111 Y44.819 E3.5037
G1 X46.314 Y41.661 E3.63692
G1 X46.897 Y38.692 E3.76429
G1 X47.745 Y36.242 E3.87343
G1 X49.014 Y34.388 E3.96801
G0 F1620 X49.405 Y33.816
G0 F4320 X49.657 Y34.068
G1 F1800 X51.236 Y32.988 E4.04854
G1 X51.738 Y32.773 E4.07153
G1 X52.93 Y32.559 E4.12252
G1 X68.82 Y32.525 E4.79144
G1 X70.29 Y32.729 E4.85391
G1 X71.825 Y33.535 E4.9269
G1 X72.848 Y34.763 E4.99418
G1 X73.413 Y36.048 E5.05327
G1 X73.541 Y37.109 E5.09826
G1 X73.55 Y53.227 E5.77678
G1 X73.26 Y54.393 E5.82736
G1 X72.532 Y55.757 E5.89245
G1 X71.31 Y56.774 E5.95937
G1 X70.027 Y57.338 E6.01837
G1 X68.966 Y57.466 E6.06336
G1 X52.855 Y57.475 E6.74159
G1 X51.337 Y57.077 E6.80765
G1 X49.651 Y55.918 E6.89378
G1 X48.047 Y53.562 E7.01376
G1 X47.053 Y50.524 E7.14832
G1 X46.642 Y48.189 E7.24813
G1 X46.461 Y44.8 E7.391
G1 X46.663 Y41.684 E7.52245
G1 X47.228 Y38.807 E7.64588
G1 X48.061 Y36.401 E7.75306
G1 X49.266 Y34.64 E7.84289
G0 F1620 X49.657 Y34.068
G0 F4320 X49.909 Y34.32
G1 F1800 X51.434 Y33.277 E7.92066
G1 X51.838 Y33.111 E7.93905
G1 X52.992 Y32.904 E7.98841
G1 X68.821 Y32.875 E8.65476
G1 X70.182 Y33.068 E8.71263
G1 X71.601 Y33.813 E8.78009
G1 X72.548 Y34.95 E8.84239
G1 X73.072 Y36.141 E8.89716
G1 X73.191 Y37.109 E8.93822
G1 X73.2 Y53.182 E9.61484
G1 X72.93 Y54.267 E9.66191
G1 X72.255 Y55.532 E9.72227
G1 X71.123 Y56.474 E9.78427
G1 X69.934 Y56.997 E9.83895
G1 X68.966 Y57.116 E9.88
G1 X52.902 Y57.125 E10.55625
G1 X51.482 Y56.753 E10.61804
G1 X49.904 Y55.668 E10.69866
G1 X48.365 Y53.408 E10.81376
G1 X47.398 Y50.463 E10.94425
G1 X46.992 Y48.17 E11.04228
G1 X46.811 Y44.781 E11.18515
G1 X47.007 Y41.751 E11.31297
G1 X47.559 Y38.921 E11.43435
G1 X48.376 Y36.561 E11.53948
G1 X49.518 Y34.892 E11.62462
G0 F1620 X49.909 Y34.32
G0 F4320 X50.161 Y34.572
G1 F1800 X51.632 Y33.566 E11.69964
G1 X51.9 Y33.456 E11.71183
G1 X53.054 Y33.249 E11.76119
G1 X68.822 Y33.225 E12.42497
G1 X70.071 Y33.405 E12.4781
G1 X71.377 Y34.091 E12.5402
G1 X72.248 Y35.137 E12.5975
G1 X72.731 Y36.234 E12.64796
G1 X72.841 Y37.109 E12.68508
G1 X72.85 Y53.137 E13.35981
G1 X72.6 Y54.141 E13.40337
G1 X71.978 Y55.307 E13.459
G1 X70.936 Y56.174 E13.51606
G1 X69.841 Y56.656 E13.56643
G1 X68.966 Y56.766 E13.60355
G1 X52.949 Y56.775 E14.27782
G1 X51.63 Y56.429 E14.33522
G1 X50.155 Y55.416 E14.41055
G1 X48.681 Y53.251 E14.52081
G1 X47.743 Y50.402 E14.64707
G1 X47.342 Y48.151 E14.74333
G1 X47.161 Y44.762 E14.8862
G1 X47.351 Y41.818 E15.01039
G1 X47.89 Y39.035 E15.12972
G1 X48.691 Y36.721 E15.2328
G1 X49.77 Y35.144 E15.31324
G0 F1620 X50.161 Y34.572
G0 F4320 X50.413 Y34.824
G1 F1800 X51.83 Y33.855 E15.38551
G1 X51.963 Y33.8 E15.39157
G1 X53.055 Y33.599 E15.43831
G1 X68.823 Y33.575 E16.10209
G1 X69.96 Y33.742 E16.15047
G1 X71.153 Y34.369 E16.20721
G1 X71.948 Y35.324 E16.25952
G1 X72.39 Y36.328 E16.3057
G1 X72.491 Y37.109 E16.33885
G1 X72.5 Y53.093 E17.01173
G1 X72.271 Y54.014 E17.05168
G1 X71.701 Y55.082 E17.10264
G1 X70.749 Y55.874 E17.15477
G1 X69.747 Y56.315 E17.20086
G1 X68.966 Y56.416 E17.23401
G1 X52.996 Y56.425 E17.9063
G1 X51.775 Y56.105 E17.95943
G1 X50.408 Y55.165 E18.02927
G1 X48.998 Y53.095 E18.13471
G1 X48.088 Y50.341 E18.25681
G1 X47.687 Y48.09 E18.35306
G1 X47.51 Y44.784 E18.49243
G1 X47.695 Y41.884 E18.61476
G1 X48.221 Y39.149 E18.73201
G1 X49.006 Y36.881 E18.83304
G1 X50.022 Y35.396 E18.90878
G0 F1620 X50.413 Y34.824
G0 F4320 X50.665 Y35.076
G1 F1800 X52.028 Y34.144 E18.97829
G1 X53.056 Y33.949 E19.02234
G1 X68.824 Y33.925 E19.68613
G1 X69.849 Y34.079 E19.72976
G1 X70.929 Y34.647 E19.78113
G1 X71.648 Y35.511 E19.82845
G1 X72.049 Y36.422 E19.87035
G1 X72.141 Y37.109 E19.89953
G1 X72.15 Y53.048 E20.57051
G1 X71.941 Y53.888 E20.60695
G1 X71.424 Y54.857 E20.65319
G1 X70.562 Y55.574 E20.70039
G1 X69.653 Y55.974 E20.74219
G1 X68.966 Y56.066 E20.77137
G1 X53.043 Y56.075 E21.44168
G1 X51.923 Y55.781 E21.49043
G1 X50.659 Y54.913 E21.55498
G1 X49.315 Y52.939 E21.65551
G1 X48.433 Y50.28 E21.77344
G1 X48.032 Y48.029 E21.86969
G1 X47.859 Y44.806 E22.00557
G1 X48.039 Y41.95 E22.12603
G1 X48.552 Y39.264 E22.24115
G1 X49.322 Y37.04 E22.34023
G1 X50.274 Y35.648 E22.41122
G0 F1620 X50.665 Y35.076
G0 F4320 X50.917 Y35.328
G1 F1800 X52.167 Y34.473 E22.47497
G1 X53.057 Y34.299 E22.51315
G1 X68.825 Y34.275 E23.17693
G1 X69.738 Y34.416 E23.21582
G1 X70.705 Y34.925 E23.26183
G1 X71.348 Y35.698 E23.30415
G1 X71.708 Y36.516 E23.34178
G1 X71.794 Y37.156 E23.36896
G1 X71.8 Y53.003 E24.03607
G1 X71.611 Y53.762 E24.069
G1 X71.147 Y54.632 E24.1105
G1 X70.375 Y55.274 E24.15277
G1 X69.559 Y55.633 E24.1903
G1 X68.919 Y55.719 E24.21749
G1 X53.09 Y55.725 E24.88384
G1 X52.068 Y55.457 E24.92832
G1 X50.912 Y54.662 E24.98738
G1 X49.632 Y52.783 E25.08309
G1 X48.778 Y50.219 E25.19685
G1 X48.377 Y47.968 E25.2931
G1 X48.208 Y44.828 E25.42548
G1 X48.383 Y42.015 E25.54413
G1 X48.883 Y39.378 E25.65712
G1 X49.637 Y37.2 E25.75414
G1 X50.526 Y35.901 E25.82041
G0 F1620 X50.917 Y35.328
G0 F4320 X51.169 Y35.58
G1 F1800 X52.305 Y34.803 E25.87834
G1 X53.124 Y34.643 E25.91347
G1 X68.825 Y34.625 E26.57444
G1 X69.627 Y34.753 E26.60863
G1 X70.481 Y35.203 E26.64926
G1 X71.048 Y35.885 E26.6866
G1 X71.367 Y36.61 E26.71994
G1 X71.447 Y37.203 E26.74513
G1 X71.45 Y52.958 E27.40837
G1 X71.281 Y53.636 E27.43778
G1 X70.87 Y54.407 E27.47457
G1 X70.188 Y54.974 E27.5119
G1 X69.465 Y55.292 E27.54515
G1 X68.872 Y55.372 E27.57034
G1 X53.137 Y55.375 E28.23274
G1 X52.216 Y55.133 E28.27282
G1 X51.163 Y54.41 E28.32659
G1 X49.949 Y52.627 E28.4174
G1 X49.123 Y50.158 E28.527
G1 X48.722 Y47.907 E28.62325
G1 X48.557 Y44.849 E28.75217
G1 X48.727 Y42.08 E28.86896
G1 X49.214 Y39.492 E28.97982
G1 X49.952 Y37.36 E29.07479
G1 X50.778 Y36.152 E29.1364
G0 F1620 X51.169 Y35.58
G0 F4320 X51.421 Y35.832
G1 F1800 X52.443 Y35.133 E29.18852
G1 X53.191 Y34.987 E29.2206
G1 X68.825 Y34.975 E29.87875
G1 X69.513 Y35.089 E29.9081
G1 X70.257 Y35.481 E29.94351
G1 X70.748 Y36.072 E29.97585
G1 X71.026 Y36.704 E30.00492
G1 X71.1 Y37.25 E30.02811
G1 X71.1 Y52.914 E30.68752
G1 X70.952 Y53.509 E30.71333
G1 X70.593 Y54.182 E30.74544
G1 X70.001 Y54.674 E30.77784
G1 X69.371 Y54.951 E30.80681
G1 X68.825 Y55.025 E30.83001
G1 X53.184 Y55.025 E31.48845
G1 X52.361 Y54.809 E31.52427
G1 X51.416 Y54.159 E31.57255
G1 X50.267 Y52.472 E31.65848
G1 X49.468 Y50.097 E31.76396
G1 X49.067 Y47.846 E31.86021
G1 X48.906 Y44.87 E31.98568
G1 X49.071 Y42.144 E32.10064
G1 X49.545 Y39.606 E32.20933
G1 X50.267 Y37.52 E32.30226
G1 X51.03 Y36.405 E32.35914
G0 F1620 X51.421 Y35.832
G0 F4320 X51.673 Y36.084
G1 F1800 X52.581 Y35.463 E32.40544
G1 X53.258 Y35.331 E32.43448
G1 X68.825 Y35.325 E33.0898
G1 X69.4 Y35.425 E33.11437
G1 X70.033 Y35.759 E33.1445
G1 X70.448 Y36.259 E33.17186
G1 X70.686 Y36.801 E33.19677
G1 X70.75 Y37.25 E33.21587
G1 X70.75 Y52.87 E33.87342
G1 X70.623 Y53.382 E33.89563
G1 X70.315 Y53.959 E33.92316
G1 X69.816 Y54.373 E33.95046
G1 X69.274 Y54.611 E33.97538
G1 X68.825 Y54.675 E33.99447
G1 X53.231 Y54.675 E34.65093
G1 X52.506 Y54.485 E34.68248
G1 X51.669 Y53.909 E34.72525
G1 X50.584 Y52.317 E34.80635
G1 X49.813 Y50.036 E34.90772
G1 X49.412 Y47.785 E35.00397
G1 X49.255 Y44.891 E35.12597
G1 X49.415 Y42.208 E35.23912
G1 X49.876 Y39.72 E35.34564
G1 X50.582 Y37.68 E35.43652
G1 X51.282 Y36.657 E35.4887
G0 F1620 X51.673 Y36.084
G0 F4320 X51.924 Y36.337
G1 F1800 X52.719 Y35.793 E35.52925
G1 X53.325 Y35.675 E35.55524
G1 X68.825 Y35.675 E36.20774
G1 X69.284 Y35.76 E36.22739
G1 X69.809 Y36.037 E36.25238
G1 X70.127 Y36.399 E36.27267
G1 X70.346 Y36.899 E36.29565
G1 X70.4 Y37.25 E36.3106
G1 X70.4 Y52.83 E36.96647
G1 X70.314 Y53.217 E36.98315
G1 X70.038 Y53.734 E37.00783
G1 X69.676 Y54.052 E37.02811
G1 X69.176 Y54.271 E37.05109
G1 X68.825 Y54.325 E37.06604
G1 X53.278 Y54.325 E37.72052
G1 X52.654 Y54.161 E37.74768
G1 X51.92 Y53.657 E37.78516
G1 X50.9 Y52.16 E37.86142
G1 X50.158 Y49.975 E37.95856
G1 X49.757 Y47.724 E38.05481
G1 X49.604 Y44.912 E38.17336
G1 X49.759 Y42.271 E38.28473
G1 X50.207 Y39.835 E38.389
G1 X50.899 Y37.837 E38.47801
G1 X51.533 Y36.91 E38.52529
G0 F1620 X51.924 Y36.337
G0 F4320 X52.175 Y36.59
G1 F1800 X52.857 Y36.123 E38.56009
G1 X53.325 Y36.025 E38.58022
G1 X68.825 Y36.025 E39.23272
G1 X69.216 Y36.103 E39.2495
G1 X69.555 Y36.277 E39.26554
G1 X69.81 Y36.547 E39.28118
G1 X70.001 Y36.957 E39.30022
G1 X70.05 Y37.25 E39.31272
G1 X70.05 Y52.79 E39.96691
G1 X69.972 Y53.141 E39.98205
G1 X69.798 Y53.48 E39.99809
G1 X69.528 Y53.735 E40.01372
G1 X69.118 Y53.926 E40.03276
G1 X68.825 Y53.975 E40.04527
G1 X53.325 Y53.975 E40.69777
G1 X52.799 Y53.837 E40.72066
G1 X52.173 Y53.406 E40.75266
G1 X51.216 Y52.002 E40.82419
G1 X50.503 Y49.914 E40.91707
G1 X50.102 Y47.663 E41.01332
G1 X49.953 Y44.932 E41.12846
G1 X50.103 Y42.334 E41.23801
G1 X50.538 Y39.95 E41.34002
G1 X51.216 Y37.994 E41.42717
G1 X51.784 Y37.163 E41.46955
G0 F1620 X52.175 Y36.59
G0 F4320 X52.426 Y36.843
G1 F1800 X52.998 Y36.451 E41.49874
G1 X53.325 Y36.375 E41.51287
G1 X68.825 Y36.375 E42.16537
G1 X69.14 Y36.445 E42.17896
G1 X69.383 Y36.582 E42.1907
G1 X69.497 Y36.704 E42.19773
G1 X69.657 Y37.022 E42.21271
G1 X69.7 Y37.25 E42.22248
G1 X69.7 Y52.75 E42.87498
G1 X69.63 Y53.065 E42.88857
G1 X69.493 Y53.308 E42.90031
G1 X69.371 Y53.422 E42.90734
G1 X69.053 Y53.582 E42.92233
G1 X68.825 Y53.625 E42.93209
G1 X53.325 Y53.625 E43.5846
G1 X52.945 Y53.513 E43.60127
G1 X52.426 Y53.156 E43.62779
G1 X51.532 Y51.845 E43.69459
G1 X50.848 Y49.853 E43.78325
G1 X50.447 Y47.602 E43.87951
G1 X50.302 Y44.952 E43.99123
G1 X50.447 Y42.396 E44.099
G1 X50.869 Y40.065 E44.19873
G1 X51.533 Y38.151 E44.28401
G1 X52.035 Y37.416 E44.32148
G0 F1620 X52.426 Y36.843
G0 F4320 X52.966 Y37.293
G1 F1800 X53.325 Y37.075 E44.33916
G1 X68.825 Y37.075 E44.99166
G1 X68.935 Y37.114 E44.99658
G1 X69 Y37.25 E45.00292
G1 X69 Y52.75 E45.65542
G1 X68.961 Y52.86 E45.66034
G1 X68.825 Y52.925 E45.66668
G1 X53.325 Y52.925 E46.31918
G1 X52.966 Y52.707 E46.33687
G1 X52.165 Y51.532 E46.39673
G1 X51.538 Y49.731 E46.47701
G1 X51.137 Y47.48 E46.57326
G1 X51 Y44.991 E46.6782
G1 X51.137 Y42.52 E46.78238
G1 X51.545 Y40.242 E46.8798
G1 X52.165 Y38.468 E46.95891
G1 X52.576 Y37.866 E46.9896
G0 F1620 X52.966 Y37.293
G0 F4320 X52.677 Y37.096
G1 F1800 X53.143 Y36.776 E47.0134
G1 X53.325 Y36.725 E47.02135
G1 X68.825 Y36.725 E47.67385
G1 X69.052 Y36.784 E47.68373
G1 X69.191 Y36.875 E47.69072
G1 X69.316 Y37.099 E47.70152
G1 X69.35 Y37.25 E47.70804
G1 X69.35 Y52.75 E48.36054
G1 X69.291 Y52.977 E48.37041
G1 X69.2 Y53.116 E48.37741
G1 X68.976 Y53.241 E48.38821
G1 X68.825 Y53.275 E48.39472
G1 X53.325 Y53.275 E49.04722
G1 X53.143 Y53.224 E49.05518
G1 X52.677 Y52.904 E49.07898
G1 X51.848 Y51.688 E49.14093
G1 X51.193 Y49.792 E49.22538
G1 X50.792 Y47.541 E49.32163
G1 X50.651 Y44.972 E49.42994
G1 X50.792 Y42.458 E49.53594
G1 X51.2 Y40.18 E49.63336
G1 X51.85 Y38.308 E49.71678
G1 X52.286 Y37.669 E49.74934
G0 F1620 X52.677 Y37.096
G1 F2400 E47.24934
G0 F4320 X52.562 Y37.018
G0 X51.732 Y38.225
G0 X51.066 Y40.129
G0 X50.651 Y42.452
G0 X50.509 Y45
G0 X50.637 Y47.293
G0 X52.929 Y62.209
G1 F2400 E49.74934
G1 F1800 X68.819 Y62.175 E50.41827
G1 X70.398 Y62.39 E50.48535
G1 X72.049 Y63.257 E50.56385
G1 X73.148 Y64.576 E50.63613
G1 X73.754 Y65.955 E50.69954
G1 X73.891 Y67.109 E50.74846
G1 X73.9 Y83.271 E51.42883
G1 X73.589 Y84.52 E51.48301
G1 X72.809 Y85.982 E51.55277
G1 X71.497 Y87.074 E51.62463
G1 X70.12 Y87.679 E51.68794
G1 X68.966 Y87.816 E51.73687
G1 X52.808 Y87.825 E52.41707
G1 X51.192 Y87.401 E52.4874
G1 X49.398 Y86.168 E52.57904
G1 X47.729 Y83.716 E52.7039
G1 X46.708 Y80.585 E52.84254
G1 X46.292 Y78.208 E52.94413
G1 X46.111 Y74.819 E53.08699
G1 X46.314 Y71.661 E53.22021
G1 X46.897 Y68.692 E53.34758
G1 X47.745 Y66.242 E53.45672
G1 X49.405 Y63.816 E53.58047
G1 X51.038 Y62.699 E53.66376
G1 X51.633 Y62.437 E53.69113
G1 X52.246 Y62.329 E53.71733
G0 F1620 X52.929 Y62.209
G1 F2400 E51.21733
G0 F4320 X49.657 Y64.068
G1 F2400 E53.71733
G1 F1800 X51.236 Y62.988 E53.79786
G1 X51.738 Y62.773 E53.82085
G1 X52.93 Y62.559 E53.87183
G1 X68.82 Y62.525 E54.54076
G1 X70.29 Y62.729 E54.60323
G1 X71.825 Y63.535 E54.67622
G1 X72.848 Y64.763 E54.7435
G1 X73.413 Y66.048 E54.80259
G1 X73.541 Y67.109 E54.84758
G1 X73.55 Y83.227 E55.5261
G1 X73.26 Y84.393 E55.57668
G1 X72.532 Y85.757 E55.64177
G1 X71.31 Y86.774 E55.70869
G1 X70.027 Y87.338 E55.76769
G1 X68.966 Y87.466 E55.81268
G1 X52.855 Y87.475 E56.49091
G1 X51.337 Y87.077 E56.55697
G1 X49.651 Y85.918 E56.6431
G1 X48.047 Y83.562 E56.76308
G1 X47.053 Y80.524 E56.89764
G1 X46.642 Y78.189 E56.99745
G1 X46.461 Y74.8 E57.14032
G1 X46.663 Y71.684 E57.27177
G1 X47.228 Y68.807 E57.3952
G1 X48.061 Y66.401 E57.50238
G1 X49.266 Y64.64 E57.59221
G0 F1620 X49.657 Y64.068
G0 F4320 X49.909 Y64.32
G1 F1800 X51.434 Y63.277 E57.66998
G1 X51.838 Y63.111 E57.68837
G1 X52.992 Y62.904 E57.73772
G1 X68.821 Y62.875 E58.40408
G1 X70.182 Y63.068 E58.46195
G1 X71.601 Y63.813 E58.52941
G1 X72.548 Y64.95 E58.5917
G1 X73.072 Y66.141 E58.64648
G1 X73.191 Y67.109 E58.68754
G1 X73.2 Y83.182 E59.36416
G1 X72.93 Y84.267 E59.41123
G1 X72.255 Y85.532 E59.47159
G1 X71.123 Y86.474 E59.53358
G1 X69.934 Y86.997 E59.58827
G1 X68.966 Y87.116 E59.62932
G1 X52.902 Y87.125 E60.30557
G1 X51.482 Y86.753 E60.36736
G1 X49.904 Y85.668 E60.44798
G1 X48.365 Y83.408 E60.56308
G1 X47.398 Y80.463 E60.69357
G1 X46.992 Y78.17 E60.7916
G1 X46.811 Y74.781 E60.93447
G1 X47.007 Y71.751 E61.06229
G1 X47.559 Y68.921 E61.18367
G1 X48.376 Y66.561 E61.2888
G1 X49.518 Y64.892 E61.37394
G0 F1620 X49.909 Y64.32
G0 F4320 X50.161 Y64.572
G1 F1800 X51.632 Y63.566 E61.44896
G1 X51.9 Y63.456 E61.46115
G1 X53.054 Y63.249 E61.51051
G1 X68.822 Y63.225 E62.17429
G1 X70.071 Y63.405 E62.22742
G1 X71.377 Y64.091 E62.28952
G1 X72.248 Y65.137 E62.34682
G1 X72.731 Y66.234 E62.39728
G1 X72.841 Y67.109 E62.4344
G1 X72.85 Y83.137 E63.10913
G1 X72.6 Y84.141 E63.15269
G1 X71.978 Y85.307 E63.20832
G1 X70.936 Y86.174 E63.26538
G1 X69.841 Y86.656 E63.31575
G1 X68.966 Y86.766 E63.35287
G1 X52.949 Y86.775 E64.02714
G1 X51.63 Y86.429 E64.08454
G1 X50.155 Y85.416 E64.15987
G1 X48.681 Y83.251 E64.27013
G1 X47.743 Y80.402 E64.39639
G1 X47.342 Y78.151 E64.49265
G1 X47.161 Y74.762 E64.63552
G1 X47.351 Y71.818 E64.75971
G1 X47.89 Y69.035 E64.87904
G1 X48.691 Y66.721 E64.98212
G1 X49.77 Y65.144 E65.06256
G0 F1620 X50.161 Y64.572
G0 F4320 X50.413 Y64.824
G1 F1800 X51.83 Y63.855 E65.13483
G1 X51.963 Y63.8 E65.14089
G1 X53.055 Y63.599 E65.18763
G1 X68.823 Y63.575 E65.85141
G1 X69.96 Y63.742 E65.89979
G1 X71.153 Y64.369 E65.95653
G1 X71.948 Y65.324 E66.00884
G1 X72.39 Y66.328 E66.05502
G1 X72.491 Y67.109 E66.08817
G1 X72.5 Y83.093 E66.76105
G1 X72.271 Y84.014 E66.801
G1 X71.701 Y85.082 E66.85196
G1 X70.749 Y85.874 E66.90409
