;FLAVOR:Marlin
;TIME:10332
;Filament used: 4.67278m
;Layer height: 0.175
;MINX:2.233
;MINY:42.225
;MINZ:0.263
;MAXX:117.767
;MAXY:77.775
;MAXZ:15.488
;TARGET_MACHINE.NAME:Monoprice Select Mini V2
;Generated with Cura_SteamEngine 5.5.0
M140 S55
M105
M190 S55
M104 S205
M105
M109 S205
M82 ;absolute extrusion mode
G21;(metric values)
G90;(absolute positioning)
M82;(set extruder to absolute mode)
M107;(start with the fan off)
G28;(Home the printer)
G92 E0;(Reset the extruder to 0)
G0 Z5 E5 F500;(Move up and prime the nozzle)
G0 X-1 Z0;(Move outside the printable area)
G1 Y60 E8 F500;(Draw a priming/wiping line to the rear)
G1 X-1;(Move a little closer to the print area)
G1 Y10 E16 F500;(draw more priming/wiping)
G1 E15 F250;(Small retract)
G92 E0;(Zero the extruder)
G92 E0
G92 E0
G1 F2400 E-2.5
;LAYER_COUNT:88
;LAYER:0
M107
G0 F4320 X6.013 Y42.371 Z0.263
;TYPE:SKIRT
G1 F2400 E0
G1 F1080 X7.167 Y42.234 E0.04892
G1 X23.486 Y42.225 E0.7359
G1 X25.08 Y42.636 E0.8052
G1 X25.623 Y43.014 E0.83305
G1 X94.366 Y43.018 E3.72692
G1 X95.148 Y42.509 E3.7662
G1 X96.7 Y42.25 E3.83244
G1 X113.212 Y42.225 E4.52754
G1 X114.461 Y42.536 E4.58173
G1 X115.923 Y43.316 E4.65148
G1 X117.015 Y44.628 E4.72334
G1 X117.62 Y46.005 E4.78666
G1 X117.757 Y47.159 E4.83558
G1 X117.767 Y73.221 E5.93271
G1 X117.456 Y74.47 E5.98689
G1 X116.676 Y75.932 E6.05665
G1 X115.364 Y77.024 E6.12851
G1 X113.987 Y77.629 E6.19183
G1 X112.833 Y77.766 E6.24075
G1 X96.52 Y77.775 E6.92747
G1 X94.9 Y77.359 E6.99788
G1 X94.368 Y76.986 E7.02524
G1 X25.658 Y76.982 E9.91772
G1 X25.186 Y77.272 E9.94104
G1 X23.684 Y77.775 E10.00772
G1 X6.788 Y77.775 E10.71899
G1 X5.539 Y77.464 E10.77317
G1 X4.077 Y76.684 E10.84293
G1 X2.985 Y75.372 E10.91479
G1 X2.38 Y73.995 E10.9781
G1 X2.243 Y72.841 E11.02703
G1 X2.233 Y46.779 E12.12416
G1 X2.544 Y45.53 E12.17834
G1 X3.324 Y44.068 E12.2481
G1 X4.636 Y42.976 E12.31996
G1 X5.378 Y42.65 E12.35407
G0 F972 X6.013 Y42.371
G0 F4320 X6.106 Y42.712
G1 F1080 X7.167 Y42.584 E12.39906
G1 X23.442 Y42.575 E13.08419
G1 X24.932 Y42.959 E13.14896
G1 X25.514 Y43.364 E13.17881
G1 X94.469 Y43.368 E16.08161
G1 X95.277 Y42.842 E16.12219
G1 X96.701 Y42.6 E16.183
G1 X113.168 Y42.575 E16.87621
G1 X114.334 Y42.865 E16.92679
G1 X115.698 Y43.593 E16.99188
G1 X116.715 Y44.815 E17.05881
G1 X117.279 Y46.098 E17.1178
G1 X117.407 Y47.159 E17.16279
G1 X117.417 Y73.177 E18.25807
G1 X117.127 Y74.343 E18.30865
G1 X116.399 Y75.707 E18.37374
G1 X115.177 Y76.724 E18.44067
G1 X113.894 Y77.288 E18.49966
G1 X112.833 Y77.416 E18.54465
G1 X96.564 Y77.425 E19.22953
G1 X95.048 Y77.036 E19.29541
G1 X94.478 Y76.636 E19.32473
G1 X25.555 Y76.632 E22.22618
G1 X25.075 Y76.94 E22.25018
G1 X23.627 Y77.425 E22.31447
G1 X6.832 Y77.425 E23.02149
G1 X5.666 Y77.135 E23.07207
G1 X4.302 Y76.407 E23.13715
G1 X3.285 Y75.185 E23.20408
G1 X2.721 Y73.902 E23.26308
G1 X2.593 Y72.841 E23.30807
G1 X2.583 Y46.823 E24.40335
G1 X2.873 Y45.657 E24.45393
G1 X3.601 Y44.293 E24.51901
G1 X4.823 Y43.276 E24.58594
G1 X5.471 Y42.991 E24.61574
G0 F972 X6.106 Y42.712
G0 F4320 X6.199 Y43.053
G1 F1080 X7.167 Y42.934 E24.6568
G1 X23.398 Y42.925 E25.34007
G1 X24.784 Y43.282 E25.40032
G1 X25.405 Y43.714 E25.43217
G1 X94.573 Y43.718 E28.34393
G1 X95.406 Y43.175 E28.38579
G1 X96.702 Y42.95 E28.44116
G1 X113.123 Y42.925 E29.13244
G1 X114.208 Y43.195 E29.17951
G1 X115.473 Y43.87 E29.23987
G1 X116.415 Y45.002 E29.30186
G1 X116.938 Y46.191 E29.35654
G1 X117.057 Y47.159 E29.3976
G1 X117.067 Y73.132 E30.49098
G1 X116.797 Y74.217 E30.53805
G1 X116.122 Y75.482 E30.59841
G1 X114.99 Y76.424 E30.66041
G1 X113.801 Y76.947 E30.71509
G1 X112.833 Y77.066 E30.75615
G1 X96.608 Y77.075 E31.43917
G1 X95.198 Y76.713 E31.50045
G1 X94.589 Y76.286 E31.53176
G1 X25.448 Y76.282 E34.44239
G1 X24.964 Y76.608 E34.46695
G1 X23.57 Y77.075 E34.52884
G1 X6.877 Y77.075 E35.23156
G1 X5.792 Y76.805 E35.27863
G1 X4.527 Y76.13 E35.33899
G1 X3.585 Y74.998 E35.40099
G1 X3.062 Y73.809 E35.45567
G1 X2.943 Y72.841 E35.49672
G1 X2.933 Y46.868 E36.59011
G1 X3.203 Y45.783 E36.63718
G1 X3.878 Y44.518 E36.69754
G1 X5.01 Y43.576 E36.75953
G1 X5.564 Y43.332 E36.78502
G0 F972 X6.199 Y43.053
G0 F4320 X6.292 Y43.394
G1 F1080 X7.167 Y43.284 E36.82214
G1 X23.354 Y43.275 E37.50356
G1 X24.636 Y43.605 E37.55929
G1 X25.296 Y44.064 E37.59313
G1 X94.677 Y44.068 E40.51386
G1 X95.536 Y43.508 E40.55703
G1 X96.762 Y43.295 E40.60941
G1 X113.078 Y43.275 E41.29627
G1 X114.082 Y43.525 E41.33982
G1 X115.248 Y44.147 E41.39545
G1 X116.115 Y45.189 E41.45252
G1 X116.597 Y46.284 E41.50288
G1 X116.707 Y47.159 E41.54001
G1 X116.717 Y73.087 E42.6315
G1 X116.467 Y74.091 E42.67505
G1 X115.845 Y75.257 E42.73068
G1 X114.803 Y76.124 E42.78775
G1 X113.708 Y76.606 E42.83811
G1 X112.833 Y76.716 E42.87524
G1 X96.652 Y76.725 E43.55641
G1 X95.348 Y76.39 E43.61308
G1 X94.7 Y75.936 E43.64639
G1 X25.338 Y75.932 E46.56632
G1 X24.853 Y76.276 E46.59135
G1 X23.513 Y76.725 E46.65084
G1 X6.922 Y76.725 E47.34927
G1 X5.918 Y76.475 E47.39283
G1 X4.752 Y75.853 E47.44846
G1 X3.885 Y74.811 E47.50553
G1 X3.403 Y73.716 E47.55589
G1 X3.293 Y72.841 E47.59301
G1 X3.283 Y46.913 E48.6845
G1 X3.533 Y45.909 E48.72806
G1 X4.155 Y44.743 E48.78369
G1 X5.197 Y43.876 E48.84076
G1 X5.657 Y43.673 E48.86192
G0 F972 X6.292 Y43.394
G0 F4320 X6.386 Y43.735
G1 F1080 X7.167 Y43.634 E48.89507
G1 X23.31 Y43.625 E49.57464
G1 X24.488 Y43.928 E49.62585
G1 X25.186 Y44.414 E49.66165
G1 X94.781 Y44.418 E52.59139
G1 X95.666 Y43.841 E52.63586
G1 X96.822 Y43.64 E52.68526
G1 X113.034 Y43.625 E53.36773
G1 X113.955 Y43.854 E53.40769
G1 X115.023 Y44.424 E53.45865
G1 X115.815 Y45.376 E53.51078
G1 X116.256 Y46.378 E53.55687
G1 X116.357 Y47.159 E53.59002
G1 X116.367 Y73.043 E54.67965
G1 X116.138 Y73.964 E54.71961
G1 X115.568 Y75.032 E54.77057
G1 X114.616 Y75.824 E54.8227
G1 X113.614 Y76.265 E54.86879
G1 X112.833 Y76.366 E54.90194
G1 X96.696 Y76.375 E55.58126
G1 X95.498 Y76.067 E55.63333
G1 X94.811 Y75.586 E55.66863
G1 X25.221 Y75.582 E58.59816
G1 X24.742 Y75.944 E58.62343
G1 X23.456 Y76.375 E58.68053
G1 X6.966 Y76.375 E59.37471
G1 X6.045 Y76.146 E59.41466
G1 X4.977 Y75.576 E59.46562
G1 X4.185 Y74.624 E59.51775
G1 X3.744 Y73.622 E59.56384
G1 X3.643 Y72.841 E59.59699
G1 X3.633 Y46.957 E60.68663
G1 X3.862 Y46.036 E60.72658
G1 X4.432 Y44.968 E60.77754
G1 X5.384 Y44.176 E60.82967
G1 X5.751 Y44.014 E60.84656
G0 F972 X6.386 Y43.735
G0 F4320 X6.48 Y44.076
G1 F1080 X7.167 Y43.984 E60.87574
G1 X23.266 Y43.975 E61.55346
G1 X24.34 Y44.251 E61.60014
G1 X25.076 Y44.764 E61.63791
G1 X94.909 Y44.768 E64.57766
G1 X95.008 Y44.684 E64.58313
G1 X95.797 Y44.174 E64.62268
G1 X96.882 Y43.985 E64.66904
G1 X112.989 Y43.975 E65.3471
G1 X113.829 Y44.184 E65.38354
G1 X114.798 Y44.701 E65.42977
G1 X115.515 Y45.563 E65.47697
G1 X115.915 Y46.472 E65.51878
G1 X116.007 Y47.159 E65.54796
G1 X116.017 Y72.998 E66.6357
G1 X115.808 Y73.838 E66.67214
G1 X115.291 Y74.807 E66.71837
G1 X114.429 Y75.524 E66.76557
G1 X113.52 Y75.924 E66.80738
G1 X112.833 Y76.016 E66.83656
G1 X96.74 Y76.025 E67.51403
G1 X95.648 Y75.744 E67.56149
G1 X94.922 Y75.236 E67.59879
G1 X25.097 Y75.232 E70.53821
G1 X24.631 Y75.612 E70.56353
G1 X23.399 Y76.025 E70.61823
G1 X7.011 Y76.025 E71.30811
G1 X6.171 Y75.816 E71.34455
G1 X5.202 Y75.299 E71.39078
G1 X4.485 Y74.437 E71.43798
G1 X4.085 Y73.528 E71.47979
G1 X3.993 Y72.841 E71.50897
G1 X3.983 Y47.002 E72.59671
G1 X4.192 Y46.162 E72.63315
G1 X4.709 Y45.193 E72.67939
G1 X5.571 Y44.476 E72.72659
G1 X5.845 Y44.355 E72.7392
G0 F972 X6.48 Y44.076
G0 F4320 X6.574 Y44.417
G1 F1080 X7.214 Y44.331 E72.76638
G1 X23.222 Y44.325 E73.44027
G1 X24.192 Y44.574 E73.48243
G1 X24.966 Y45.114 E73.52216
G1 X95.044 Y45.118 E76.47223
G1 X95.198 Y44.978 E76.48099
G1 X95.927 Y44.507 E76.51752
G1 X96.942 Y44.33 E76.5609
G1 X112.944 Y44.325 E77.23453
G1 X113.703 Y44.514 E77.26746
G1 X114.573 Y44.978 E77.30897
G1 X115.215 Y45.75 E77.35123
G1 X115.574 Y46.566 E77.38876
G1 X115.66 Y47.206 E77.41595
G1 X115.667 Y72.953 E78.49982
G1 X115.478 Y73.712 E78.53274
G1 X115.014 Y74.582 E78.57425
G1 X114.242 Y75.224 E78.61652
G1 X113.426 Y75.583 E78.65405
G1 X112.786 Y75.669 E78.68123
G1 X96.784 Y75.675 E79.35487
G1 X95.798 Y75.421 E79.39773
G1 X95.033 Y74.886 E79.43703
G1 X24.973 Y74.882 E82.38634
G1 X24.46 Y75.3 E82.4142
G1 X23.342 Y75.675 E82.46384
G1 X7.056 Y75.675 E83.14943
G1 X6.297 Y75.486 E83.18236
G1 X5.427 Y75.022 E83.22386
G1 X4.785 Y74.25 E83.26613
G1 X4.426 Y73.434 E83.30366
G1 X4.34 Y72.794 E83.33085
G1 X4.333 Y47.047 E84.41472
G1 X4.522 Y46.288 E84.44764
G1 X4.986 Y45.418 E84.48915
G1 X5.758 Y44.776 E84.53142
G1 X5.939 Y44.696 E84.53975
G0 F972 X6.574 Y44.417
G0 F4320 X6.668 Y44.758
G1 F1080 X7.261 Y44.678 E84.56494
G1 X23.178 Y44.675 E85.235
G1 X24.045 Y44.898 E85.27268
G1 X24.717 Y45.36 E85.30701
G1 X24.825 Y45.464 E85.31332
G1 X95.186 Y45.468 E88.27531
G1 X95.388 Y45.272 E88.28715
G1 X96.057 Y44.84 E88.32068
G1 X97.002 Y44.675 E88.36106
G1 X112.899 Y44.675 E89.03028
G1 X113.577 Y44.844 E89.05969
G1 X114.348 Y45.255 E89.09647
G1 X114.915 Y45.937 E89.13381
G1 X115.233 Y46.66 E89.16706
G1 X115.313 Y47.253 E89.19225
G1 X115.317 Y72.908 E90.27225
G1 X115.148 Y73.586 E90.30166
G1 X114.737 Y74.357 E90.33844
G1 X114.055 Y74.924 E90.37578
G1 X113.332 Y75.242 E90.40903
G1 X112.739 Y75.322 E90.43422
G1 X96.828 Y75.325 E91.10402
G1 X95.947 Y75.098 E91.14232
G1 X95.28 Y74.638 E91.17643
G1 X95.175 Y74.536 E91.18259
G1 X24.849 Y74.532 E94.1431
G1 X24.289 Y74.988 E94.1735
G1 X23.285 Y75.325 E94.21808
G1 X7.101 Y75.325 E94.89938
G1 X6.423 Y75.156 E94.9288
G1 X5.652 Y74.745 E94.96558
G1 X5.085 Y74.063 E95.00291
G1 X4.767 Y73.34 E95.03616
G1 X4.687 Y72.747 E95.06135
G1 X4.683 Y47.092 E96.14135
G1 X4.852 Y46.414 E96.17076
G1 X5.263 Y45.643 E96.20754
G1 X5.945 Y45.076 E96.24488
G1 X6.033 Y45.037 E96.24893
G0 F972 X6.668 Y44.758
G0 F4320 X6.762 Y45.099
G1 F1080 X7.308 Y45.025 E96.27213
G1 X23.134 Y45.025 E96.93835
G1 X23.899 Y45.222 E96.97161
G1 X24.519 Y45.648 E97.00328
G1 X24.671 Y45.814 E97.01275
G1 X95.335 Y45.818 E99.98749
G1 X95.578 Y45.566 E100.00223
G1 X96.188 Y45.172 E100.0328
G1 X97.002 Y45.025 E100.06762
G1 X112.855 Y45.025 E100.73498
G1 X113.45 Y45.173 E100.76079
G1 X114.123 Y45.532 E100.7929
G1 X114.615 Y46.124 E100.82531
G1 X114.892 Y46.754 E100.85428
G1 X114.966 Y47.3 E100.87747
G1 X114.967 Y72.864 E101.95364
G1 X114.819 Y73.459 E101.97945
G1 X114.46 Y74.132 E102.01156
G1 X113.868 Y74.624 E102.04396
G1 X113.238 Y74.901 E102.07293
G1 X112.692 Y74.975 E102.09613
G1 X96.872 Y74.975 E102.7621
G1 X96.095 Y74.775 E102.79588
G1 X95.479 Y74.35 E102.82738
G1 X95.328 Y74.186 E102.83677
G1 X24.698 Y74.182 E105.81007
G1 X24.622 Y74.266 E105.81484
G1 X24.116 Y74.677 E105.84229
G1 X23.228 Y74.975 E105.88172
G1 X7.145 Y74.975 E106.55876
G1 X6.55 Y74.827 E106.58457
G1 X5.877 Y74.468 E106.61668
G1 X5.385 Y73.876 E106.64909
G1 X5.108 Y73.246 E106.67806
G1 X5.034 Y72.7 E106.70125
G1 X5.033 Y47.136 E107.77742
G1 X5.181 Y46.541 E107.80323
G1 X5.54 Y45.868 E107.83534
G1 X6.128 Y45.379 E107.86754
G0 F972 X6.132 Y45.376
G0 X6.762 Y45.099
G0 F4320 X6.859 Y45.439
G1 F1080 X7.308 Y45.375 E107.88663
G1 X23.089 Y45.375 E108.55096
G1 X23.751 Y45.546 E108.57974
G1 X24.321 Y45.937 E108.60884
G1 X24.504 Y46.164 E108.62112
G1 X95.491 Y46.168 E111.60945
G1 X95.768 Y45.86 E111.62689
G1 X96.319 Y45.504 E111.6545
G1 X97.002 Y45.375 E111.68376
G1 X112.811 Y45.375 E112.34928
G1 X113.323 Y45.502 E112.37148
G1 X113.9 Y45.81 E112.39902
G1 X114.314 Y46.309 E112.42631
G1 X114.552 Y46.851 E112.45123
G1 X114.616 Y47.3 E112.47032
G1 X114.617 Y72.82 E113.54464
G1 X114.49 Y73.332 E113.56684
G1 X114.182 Y73.909 E113.59438
G1 X113.683 Y74.323 E113.62167
G1 X113.141 Y74.561 E113.64659
G1 X112.692 Y74.625 E113.66568
G1 X96.916 Y74.625 E114.32981
G1 X96.243 Y74.452 E114.35906
G1 X95.678 Y74.062 E114.38796
G1 X95.496 Y73.836 E114.40017
G1 X24.525 Y73.832 E117.38784
G1 X24.401 Y73.994 E117.39642
G1 X23.943 Y74.366 E117.42126
G1 X23.171 Y74.625 E117.45554
G1 X7.189 Y74.625 E118.12833
G1 X6.677 Y74.498 E118.15054
G1 X6.1 Y74.19 E118.17808
G1 X5.686 Y73.691 E118.20537
G1 X5.448 Y73.149 E118.23029
G1 X5.384 Y72.7 E118.24938
G1 X5.383 Y47.18 E119.3237
G1 X5.51 Y46.668 E119.3459
G1 X5.818 Y46.091 E119.37344
G1 X6.238 Y45.742 E119.39643
G0 F972 X6.317 Y45.677
G0 X6.859 Y45.439
G0 F4320 X6.957 Y45.779
G1 F1080 X7.308 Y45.725 E119.41137
G1 X23.045 Y45.725 E120.07385
G1 X23.603 Y45.869 E120.09811
G1 X24.123 Y46.226 E120.12467
G1 X24.319 Y46.514 E120.13933
G1 X95.655 Y46.518 E123.14236
G1 X95.958 Y46.154 E123.1623
G1 X96.452 Y45.835 E123.18705
G1 X97.002 Y45.725 E123.21066
G1 X112.771 Y45.725 E123.87449
G1 X113.158 Y45.811 E123.89118
G1 X113.675 Y46.087 E123.91585
G1 X113.993 Y46.449 E123.93613
G1 X114.212 Y46.949 E123.95911
G1 X114.266 Y47.3 E123.97406
G1 X114.267 Y72.78 E125.04669
G1 X114.181 Y73.167 E125.06338
G1 X113.905 Y73.684 E125.08805
G1 X113.543 Y74.002 E125.10834
G1 X113.043 Y74.221 E125.13132
G1 X112.692 Y74.275 E125.14627
G1 X96.96 Y74.275 E125.80853
G1 X96.391 Y74.129 E125.83326
G1 X95.877 Y73.774 E125.85956
G1 X95.681 Y73.486 E125.87423
G1 X24.332 Y73.482 E128.8778
G1 X24.18 Y73.722 E128.88976
G1 X23.77 Y74.055 E128.91199
G1 X23.114 Y74.275 E128.94112
G1 X7.229 Y74.275 E129.60983
G1 X6.842 Y74.189 E129.62652
G1 X6.325 Y73.913 E129.65119
G1 X6.007 Y73.551 E129.67148
G1 X5.788 Y73.051 E129.69446
G1 X5.734 Y72.7 E129.7094
G1 X5.733 Y47.22 E130.78203
G1 X5.819 Y46.833 E130.79872
G1 X6.095 Y46.316 E130.8234
G1 X6.345 Y46.096 E130.83741
G0 F972 X6.457 Y45.998
G0 X6.957 Y45.779
G0 F4320 X7.308 Y46.075
G1 F1080 X23 Y46.075 E131.498
G1 X23.515 Y46.208 E131.52039
G1 X23.914 Y46.506 E131.54135
G1 X24.113 Y46.864 E131.5586
G1 X95.882 Y46.868 E134.57985
G1 X95.962 Y46.681 E134.58841
G1 X96.148 Y46.448 E134.60097
G1 X96.586 Y46.165 E134.62292
G1 X97.002 Y46.075 E134.64084
G1 X112.731 Y46.075 E135.30298
G1 X113.082 Y46.153 E135.31811
G1 X113.421 Y46.327 E135.33416
G1 X113.676 Y46.597 E135.34979
G1 X113.867 Y47.007 E135.36883
G1 X113.916 Y47.3 E135.38134
G1 X113.917 Y72.74 E136.45228
G1 X113.839 Y73.091 E136.46742
G1 X113.665 Y73.43 E136.48346
G1 X113.395 Y73.685 E136.49909
G1 X112.985 Y73.876 E136.51813
G1 X112.692 Y73.925 E136.53064
G1 X96.96 Y73.925 E137.19291
G1 X96.485 Y73.792 E137.21367
G1 X96.086 Y73.494 E137.23464
G1 X95.887 Y73.136 E137.25188
G1 X24.124 Y73.132 E140.27288
G1 X23.945 Y73.463 E140.28872
G1 X23.659 Y73.723 E140.305
G1 X23.057 Y73.925 E140.33173
G1 X7.269 Y73.925 E140.99635
G1 X6.918 Y73.847 E141.01149
G1 X6.579 Y73.673 E141.02753
G1 X6.324 Y73.403 E141.04316
G1 X6.133 Y72.993 E141.06221
G1 X6.084 Y72.7 E141.07471
G1 X6.083 Y47.26 E142.14566
G1 X6.161 Y46.909 E142.16079
G1 X6.335 Y46.57 E142.17683
G1 X6.605 Y46.315 E142.19247
G1 X6.655 Y46.291 E142.1948
G0 F972 X7.015 Y46.124
G0 X7.308 Y46.075
G0 F4320 X7.308 Y46.425
G1 F1080 X23 Y46.425 E142.85539
G1 X23.315 Y46.495 E142.86897
G1 X23.636 Y46.719 E142.88545
G1 X23.729 Y46.84 E142.89187
G1 X23.872 Y47.214 E142.90873
G1 X96.129 Y47.218 E145.95053
G1 X96.25 Y46.88 E145.96564
G1 X96.352 Y46.732 E145.97321
G1 X96.668 Y46.505 E145.98959
G1 X97.002 Y46.425 E146.00405
G1 X112.691 Y46.425 E146.6645
G1 X113.006 Y46.495 E146.67809
G1 X113.249 Y46.632 E146.68983
G1 X113.363 Y46.754 E146.69686
G1 X113.523 Y47.072 E146.71185
G1 X113.566 Y47.3 E146.72161
G1 X113.567 Y72.7 E147.79088
G1 X113.497 Y73.015 E147.80446
G1 X113.36 Y73.258 E147.8162
G1 X113.238 Y73.372 E147.82323
G1 X112.92 Y73.532 E147.83822
G1 X112.692 Y73.575 E147.84799
G1 X97 Y73.575 E148.50857
G1 X96.685 Y73.505 E148.52215
G1 X96.364 Y73.281 E148.53863
G1 X96.271 Y73.16 E148.54506
G1 X96.128 Y72.786 E148.56191
G1 X23.879 Y72.782 E151.60337
G1 X23.775 Y73.069 E151.61623
G1 X23.646 Y73.281 E151.62667
G1 X23.48 Y73.414 E151.63563
G1 X23 Y73.575 E151.65694
G1 X7.309 Y73.575 E152.31748
G1 X6.994 Y73.505 E152.33107
G1 X6.751 Y73.368 E152.34281
G1 X6.637 Y73.246 E152.34984
G1 X6.477 Y72.928 E152.36482
G1 X6.434 Y72.7 E152.37459
G1 X6.433 Y47.3 E153.44385
G1 X6.503 Y46.985 E153.45744
G1 X6.64 Y46.742 E153.46918
G1 X6.684 Y46.701 E153.47171
G0 F972 X6.762 Y46.628
G0 X7.08 Y46.468
G0 X7.308 Y46.425
G0 F4320 X7.308 Y47.125
G1 F1080 X23 Y47.125 E154.1323
